X:1
T:Hallelujah! Christ Is Risen
T:Hallelujah! Christ Is Risen
T:Joseph W. Lerman
T:Benjamin Homer Hall, 1906
T:Public Domain Courtesy of the Cyber Hymnal™
T:Public Domain Courtesy of the Cyber Hymnal™
C:Joseph W. Lerman
Z:Public Domain
Z:Courtesy of the Cyber Hymnal™
%%score ( 1 2 ) ( 3 4 )
L:1/8
Q:1/4=110
M:4/4
K:Eb
V:1 treble 
V:2 treble 
V:3 bass 
V:4 bass 
V:1
 [EG]2 [EG]2 [DA]2 [DA]2 | (Be) (dc) [DB]2 [DA]2 | [EG]2 [EG]2 [=EG]2 [EG]2 | (ABc)[FA] F4 x | %4
w: 1.~Day of won- der,|day * of * glad- ness,|Hail thy ev- er|glo- * * rious light!|
w: 2.~In the tri- umph|of * this * ho- ur,|Ju- bi- lant shall|swell * * the song;|
w: 3.~Ev- ery peo- ple,|ev- * ery * na- tion,|Soon shall hear the|glad- * * some sound;|
 [EG]2 [EG]2 [DA]2 [DA]2 | (Be) (dc) [DB]2 [DA]2 | [EG]2 [^F=A]2 [GB]2 (dc) | [FB]2 [E=A]2 [DB]4 | %8
w: Gone is sor- row,|gone * is * sad- ness,|End- ed is the *|gloom- y night!|
w: Un- to Je- sus,|hon- * or, * pow- er,|Bless- ing, vic- to- *|ry be- long.|
w: Joy- ous tid- ings|of * sal- * va- tion,|Borne to earth’s re- *|mot- est bound.|
"^Girls" [df]3 [ce] ([Bd][Ac]) ([GB][FA]) | ([EG][FA]) ([GB][Ac]) [GB]2 [EG]2 | %10
w: List- en to * the *|an- * gel’s * sto- ry—|
w: Scat- tered are * the *|clouds * of * er- ror,|
w: Then shall rise * in *|tones * ex- * cell- ing,|
 ([FA][Ac]) ([GB][FA]) [EG]2 [FA]2 | [GB]2 [Ge]2 d4 |"^All" [Ge]3 B G2 E2 | %13
w: Cast * a- * way all|dark and dread;|Give to God, the|
w: Sin * and * hell are|cap- tive led;|E’en the grave is|
w: Praise * for * grace so|free- ly shed;|And the East- er|
 [Ec]3 [=EB] [GB]2 [FA]2 | C2 F2 G2 A2 | c2 [=Ae]2 d4 ||"^Refrain" (ede)[Gc] [Ad]2 [Ad]2 | %17
w: Fa- ther, glo- ry!|“Christ is ris- en|from the dead!”||
w: free from ter- ror,|“Christ is ris- en|from the dead!”|Hal- * * le- lu- jah!|
w: hymn be swell- ing,|“Christ is ris- en|from the dead!”||
 (d^cd)[AB] [G=c]2 [Gc]2 | (c=Bc)[_EG] (A_B) [Fc]2 | [Fd]2 [Dc]2 B4 | (ede)[Gc] [Ad]2 [Ad]2 | %21
w: ||||
w: hal- * * le- lu- jah!|Christ * * is ris- * en,|as He said;|Hal- * * le- lu- jah!|
w: ||||
 (d^cd)[AB] [G=c]2 [Gc]2 | (c=Bc)[_EG] (A_B) [Fc]2 | [Fd]2 [AB]2 [Ge]4 |] %24
w: |||
w: hal- * * le- lu- jah!|Christ * * is ris- * en|from the dead!|
w: |||
V:2
 x8 | E2 E2 x4 | x8 | F3 (E2 D2) x2 | x8 | E2 E2 x4 | x6 G2 | x8 | x8 | x8 | x8 | x4 (F2 A2) | %12
 x3 B G2 E2 | x8 | C2 F2 G2 A2 | c2 (B2 _A2) x2 || G3 x5 | A3 x5 | =E3 F2 x3 | x4 (E2 A2) | G3 x5 | %21
 A3 x5 | =E3 F2 x3 | x8 |] %24
V:3
 [E,B,]2 [E,B,]2 [F,B,]2 [F,B,]2 | [G,B,]2 [_G,=A,]2 [F,_A,]2 [B,,B,]2 | %2
 [E,B,]2 [E,B,]2 [C,C]2 [C,C]2 | C2 [F,C] B,4 B,,2 | [E,B,]2 [E,B,]2 [F,B,]2 [F,B,]2 | %5
 [G,B,]2 [_G,=A,]2 [F,_A,]2 [B,,B,]2 | [E,B,]2 [D,D]2 [G,D]2 [E,E]2 | [F,D]2 [F,C]2 [B,,B,]4 | %8
 B,,2 B,2 B,,2 B,2 | E,2 B,2 E,2 B,2 | B,,2 B,2 E,2 B,2 | G,2 E,2 (B,,2 B,2) | [E,B,]3 B, G,2 E,2 | %13
 A,3 [G,C] [F,C]2 [F,C]2 | C,2 F,2 G,2 A,2 | C2 [F,F]2 (F2 B,2) || [E,B,]3 [E,B,] [F,B,]2 [F,B,]2 | %17
 [B,,B,]3 [B,,B,] [E,B,]2 [E,B,]2 | [C,C]3 [C,C] C2 [A,C]2 | B,2 [A,B,]2 B,4 | %20
 [E,B,]3 [E,B,] [F,B,]2 [F,B,]2 | [B,,B,]3 [B,,B,] [E,B,]2 [E,B,]2 | [C,C]3 [C,C] C2 [A,C]2 | %23
 B,2 [B,,B,]2 [E,B,]4 |] %24
V:4
 x8 | x8 | x8 | (F,G,A,) x B,2 x3 | x8 | x8 | x8 | x8 | x8 | x8 | x8 | x8 | x3 B, G,2 E,2 | %13
 A,3 x5 | C,2 F,2 G,2 A,2 | C2 B,4 x2 || x8 | x8 | x4 (F,G,) x2 | B,2 (G,2 F,2) x2 | x8 | x8 | %22
 x4 (F,G,) x2 | B,2 x6 |] %24

